static/img/kroki/c80d1ee2512ef4d21d882c540882cd20.svg

<?xml version="1.0" encoding="us-ascii" standalone="no"?><svg xmlns="http://www.w3.org/2000/svg" xmlns:xlink="http://www.w3.org/1999/xlink" contentStyleType="text/css" height="352px" preserveAspectRatio="none" style="width:373px;height:352px;" version="1.1" viewBox="0 0 373 352" width="373px" zoomAndPan="magnify"><defs/><g><!--class digitalocean_domain--><g id="elem_digitalocean_domain"><rect codeLine="22" fill="#3D176E" height="39.7891" id="digitalocean_domain" rx="2.5" ry="2.5" style="stroke:#000D19;stroke-width:0.5;" width="215" x="41.19" y="206.58"/><ellipse cx="56.19" cy="226.4745" fill="#ADD1B2" rx="11" ry="11" style="stroke:#181818;stroke-width:1.0;"/><path d="M59.1588,232.1152 Q58.5806,232.412 57.94,232.5527 Q57.2994,232.7089 56.5963,232.7089 Q54.0963,232.7089 52.7681,231.0683 Q51.4556,229.412 51.4556,226.287 Q51.4556,223.162 52.7681,221.5058 Q54.0963,219.8495 56.5963,219.8495 Q57.2994,219.8495 57.94,220.0058 Q58.5963,220.162 59.1588,220.4589 L59.1588,223.1777 Q58.5338,222.5995 57.94,222.3339 Q57.3463,222.0527 56.7213,222.0527 Q55.3775,222.0527 54.69,223.1308 Q54.0025,224.1933 54.0025,226.287 Q54.0025,228.3808 54.69,229.4589 Q55.3775,230.5214 56.7213,230.5214 Q57.3463,230.5214 57.94,230.2558 Q58.5338,229.9745 59.1588,229.3964 L59.1588,232.1152 Z " fill="#000000"/><text fill="#D9B8FF" font-family="Helvetica" font-size="17" lengthAdjust="spacing" textLength="173" x="75.19" y="232.3598">digitalocean_domain</text></g><!--class digitalocean_domain_record--><g id="elem_digitalocean_domain_record"><rect codeLine="24" fill="#3D176E" height="39.7891" id="digitalocean_domain_record" rx="2.5" ry="2.5" style="stroke:#000D19;stroke-width:0.5;" width="276" x="90.69" y="306.37"/><ellipse cx="105.69" cy="326.2645" fill="#ADD1B2" rx="11" ry="11" style="stroke:#181818;stroke-width:1.0;"/><path d="M108.6588,331.9052 Q108.0806,332.202 107.44,332.3427 Q106.7994,332.4989 106.0963,332.4989 Q103.5963,332.4989 102.2681,330.8583 Q100.9556,329.202 100.9556,326.077 Q100.9556,322.952 102.2681,321.2958 Q103.5963,319.6395 106.0963,319.6395 Q106.7994,319.6395 107.44,319.7958 Q108.0963,319.952 108.6588,320.2489 L108.6588,322.9677 Q108.0338,322.3895 107.44,322.1239 Q106.8463,321.8427 106.2213,321.8427 Q104.8775,321.8427 104.19,322.9208 Q103.5025,323.9833 103.5025,326.077 Q103.5025,328.1708 104.19,329.2489 Q104.8775,330.3114 106.2213,330.3114 Q106.8463,330.3114 107.44,330.0458 Q108.0338,329.7645 108.6588,329.1864 L108.6588,331.9052 Z " fill="#000000"/><text fill="#D9B8FF" font-family="Helvetica" font-size="17" lengthAdjust="spacing" textLength="234" x="124.69" y="332.1498">digitalocean_domain_record</text></g><!--class digitalocean_project--><g id="elem_digitalocean_project"><rect codeLine="26" fill="#3D176E" height="39.7891" id="digitalocean_project" rx="2.5" ry="2.5" style="stroke:#000D19;stroke-width:0.5;" width="209" x="46.19" y="106.79"/><ellipse cx="61.19" cy="126.6845" fill="#ADD1B2" rx="11" ry="11" style="stroke:#181818;stroke-width:1.0;"/><path d="M64.1588,132.3252 Q63.5806,132.622 62.94,132.7627 Q62.2994,132.9189 61.5963,132.9189 Q59.0963,132.9189 57.7681,131.2783 Q56.4556,129.622 56.4556,126.497 Q56.4556,123.372 57.7681,121.7158 Q59.0963,120.0595 61.5963,120.0595 Q62.2994,120.0595 62.94,120.2158 Q63.5963,120.372 64.1588,120.6689 L64.1588,123.3877 Q63.5338,122.8095 62.94,122.5439 Q62.3463,122.2627 61.7213,122.2627 Q60.3775,122.2627 59.69,123.3408 Q59.0025,124.4033 59.0025,126.497 Q59.0025,128.5908 59.69,129.6689 Q60.3775,130.7314 61.7213,130.7314 Q62.3463,130.7314 62.94,130.4658 Q63.5338,130.1845 64.1588,129.6064 L64.1588,132.3252 Z " fill="#000000"/><text fill="#D9B8FF" font-family="Helvetica" font-size="17" lengthAdjust="spacing" textLength="167" x="80.19" y="132.5698">digitalocean_project</text></g><!--class digitalocean_team--><g id="elem_digitalocean_team"><rect codeLine="28" fill="#3D176E" height="39.7891" id="digitalocean_team" rx="2.5" ry="2.5" style="stroke:#000D19;stroke-width:0.5;" width="196" x="52.69" y="7"/><ellipse cx="67.69" cy="26.8945" fill="#ADD1B2" rx="11" ry="11" style="stroke:#181818;stroke-width:1.0;"/><path d="M70.6588,32.5352 Q70.0806,32.832 69.44,32.9727 Q68.7994,33.1289 68.0963,33.1289 Q65.5963,33.1289 64.2681,31.4883 Q62.9556,29.832 62.9556,26.707 Q62.9556,23.582 64.2681,21.9258 Q65.5963,20.2695 68.0963,20.2695 Q68.7994,20.2695 69.44,20.4258 Q70.0963,20.582 70.6588,20.8789 L70.6588,23.5977 Q70.0338,23.0195 69.44,22.7539 Q68.8463,22.4727 68.2213,22.4727 Q66.8775,22.4727 66.19,23.5508 Q65.5025,24.6133 65.5025,26.707 Q65.5025,28.8008 66.19,29.8789 Q66.8775,30.9414 68.2213,30.9414 Q68.8463,30.9414 69.44,30.6758 Q70.0338,30.3945 70.6588,29.8164 L70.6588,32.5352 Z " fill="#000000"/><text fill="#D9B8FF" font-family="Helvetica" font-size="17" lengthAdjust="spacing" textLength="154" x="86.69" y="32.7798">digitalocean_team</text></g><!--link digitalocean_domain to digitalocean_domain_record--><g id="link_digitalocean_domain_digitalocean_domain_record"><path codeLine="30" d="M164.5,246.8 C178.52,263.94 195.1012,284.2058 209.1212,301.3458 " fill="none" id="digitalocean_domain-to-digitalocean_domain_record" style="stroke:#1A83AF;stroke-width:2.0;"/><polygon fill="#1A83AF" points="212.92,305.99,210.3179,296.4911,209.7543,302.1198,204.1256,301.5562,212.92,305.99" style="stroke:#1A83AF;stroke-width:2.0;"/></g><!--link digitalocean_project to digitalocean_domain--><g id="link_digitalocean_project_digitalocean_domain"><path codeLine="31" d="M150.3,147.01 C149.95,164.15 149.5625,183.0613 149.2125,200.2013 " fill="none" id="digitalocean_project-to-digitalocean_domain" style="stroke:#1A83AF;stroke-width:2.0;"/><polygon fill="#1A83AF" points="149.09,206.2,153.2729,197.2835,149.1921,201.201,145.2746,197.1202,149.09,206.2" style="stroke:#1A83AF;stroke-width:2.0;"/></g><!--link digitalocean_team to digitalocean_domain--><g id="link_digitalocean_team_digitalocean_domain"><path codeLine="32" d="M98.76,47.28 C72.73,59.95 43.64,79.32 28.69,106.79 C6,148.49 54.7014,182.2809 97.4814,203.4309 " fill="none" id="digitalocean_team-to-digitalocean_domain" style="stroke:#1A83AF;stroke-width:2.0;"/><polygon fill="#1A83AF" points="102.86,206.09,96.5649,198.5156,98.3779,203.8741,93.0194,205.687,102.86,206.09" style="stroke:#1A83AF;stroke-width:2.0;"/></g><!--link digitalocean_team to digitalocean_domain_record--><g id="link_digitalocean_team_digitalocean_domain_record"><path codeLine="33" d="M202.2,47.19 C228.27,59.87 257.54,79.29 272.69,106.79 C302.62,161.13 289.59,186.41 273.69,246.37 C267.83,268.47 257.6248,285.9445 246.8848,301.1945 " fill="none" id="digitalocean_team-to-digitalocean_domain_record" style="stroke:#1A83AF;stroke-width:2.0;"/><polygon fill="#1A83AF" points="243.43,306.1,251.8826,301.0449,246.309,302.012,245.3418,296.4385,243.43,306.1" style="stroke:#1A83AF;stroke-width:2.0;"/></g><!--link digitalocean_team to digitalocean_project--><g id="link_digitalocean_team_digitalocean_project"><path codeLine="34" d="M150.69,47.22 C150.69,64.36 150.69,83.28 150.69,100.41 " fill="none" id="digitalocean_team-to-digitalocean_project" style="stroke:#1A83AF;stroke-width:2.0;"/><polygon fill="#1A83AF" points="150.69,106.41,154.69,97.41,150.69,101.41,146.69,97.41,150.69,106.41" style="stroke:#1A83AF;stroke-width:2.0;"/></g><!--SRC=[jP1DJm8n48Rl-okQS2PX9GfSJ5OIeXTYn9inP6YdKDbjDzD1WiR_BYjeodwUlFPzfkypip4A1MOv7qI6sGh9HtvhR0u4cKY8t7xgKaUYfpNeuQWSpfpbJc0E6OfxJD-HZOGoyRmnSclHUt4LH7SWjsjoEwjEtpE1zSS8BGVKD0Nl4sOognrZ8ACcgx7MPRByQM-euj4DLZ172kcC30O35K_AI6TLwzv_nC9ye8Z3eyqTOqMpKl53jLeMH21PMVGtRtHy1AMCNOlhuEtfv4GMwU9ziG7bzWMj8VLXZMSaT7p8SLhP2YTZfKUry4CJB8lB2MNMXY5r4i4kbSl0MF4PVJMdIq9vF5SJb9DxGybDCUDHhiZgUlillJWP3vFPQ_-sfJggBUmQZgeU_p1IgzWnUTxW6m00]--></g></svg>

<svg xmlns="http://www.w3.org/2000/svg" width="373" height="352" viewBox="0 0 373 352"><rect width="215" height="39.789" x="41.19" y="206.58" fill="#3D176E" rx="2.5" ry="2.5" style="stroke:#000d19;stroke-width:.5"/><circle cx="56.19" cy="226.475" r="11" fill="#ADD1B2" style="stroke:#181818;stroke-width:1"/><path d="M59.159 232.115q-.578.297-1.219.438-.64.156-1.344.156-2.5 0-3.828-1.64-1.312-1.657-1.312-4.782t1.312-4.781q1.328-1.656 3.828-1.656.703 0 1.344.156.656.156 1.219.453v2.719q-.625-.578-1.219-.844-.594-.281-1.219-.281-1.343 0-2.031 1.078-.687 1.062-.687 3.156t.687 3.172q.688 1.062 2.031 1.062.625 0 1.219-.265.594-.281 1.219-.86z"/><text x="75.19" y="232.36" fill="#D9B8FF" font-family="Helvetica" font-size="17" textLength="173">digitalocean_domain</text><rect width="276" height="39.789" x="90.69" y="306.37" fill="#3D176E" rx="2.5" ry="2.5" style="stroke:#000d19;stroke-width:.5"/><circle cx="105.69" cy="326.264" r="11" fill="#ADD1B2" style="stroke:#181818;stroke-width:1"/><path d="M108.659 331.905q-.578.297-1.219.438-.64.156-1.344.156-2.5 0-3.828-1.64-1.312-1.657-1.312-4.782t1.312-4.781q1.328-1.656 3.828-1.656.703 0 1.344.156.656.156 1.219.453v2.719q-.625-.579-1.219-.844-.594-.281-1.219-.281-1.344 0-2.031 1.078-.687 1.062-.687 3.156t.687 3.172q.688 1.062 2.031 1.062.625 0 1.219-.265.594-.281 1.219-.86z"/><text x="124.69" y="332.15" fill="#D9B8FF" font-family="Helvetica" font-size="17" textLength="234">digitalocean_domain_record</text><rect width="209" height="39.789" x="46.19" y="106.79" fill="#3D176E" rx="2.5" ry="2.5" style="stroke:#000d19;stroke-width:.5"/><circle cx="61.19" cy="126.684" r="11" fill="#ADD1B2" style="stroke:#181818;stroke-width:1"/><path d="M64.159 132.325q-.578.297-1.219.438-.64.156-1.344.156-2.5 0-3.828-1.64-1.312-1.657-1.312-4.782t1.312-4.781q1.328-1.656 3.828-1.656.703 0 1.344.156.656.156 1.219.453v2.719q-.625-.579-1.219-.844-.594-.281-1.219-.281-1.343 0-2.031 1.078-.687 1.062-.687 3.156t.687 3.172q.688 1.062 2.031 1.062.625 0 1.219-.265.594-.281 1.219-.86z"/><text x="80.19" y="132.57" fill="#D9B8FF" font-family="Helvetica" font-size="17" textLength="167">digitalocean_project</text><rect width="196" height="39.789" x="52.69" y="7" fill="#3D176E" rx="2.5" ry="2.5" style="stroke:#000d19;stroke-width:.5"/><circle cx="67.69" cy="26.895" r="11" fill="#ADD1B2" style="stroke:#181818;stroke-width:1"/><path d="M70.659 32.535q-.578.297-1.219.438-.64.156-1.344.156-2.5 0-3.828-1.64-1.312-1.657-1.312-4.782t1.312-4.781q1.328-1.656 3.828-1.656.703 0 1.344.156.656.156 1.219.453v2.719q-.625-.578-1.219-.844-.594-.281-1.219-.281-1.344 0-2.031 1.078-.687 1.062-.687 3.156t.687 3.172q.688 1.062 2.031 1.062.625 0 1.219-.265.594-.281 1.219-.86z"/><text x="86.69" y="32.78" fill="#D9B8FF" font-family="Helvetica" font-size="17" textLength="154">digitalocean_team</text><path fill="none" d="m164.5 246.8 44.621 54.546" style="stroke:#1a83af;stroke-width:2"/><path fill="#1A83AF" d="m212.92 305.99-2.602-9.499-.564 5.629-5.628-.564z" style="stroke:#1a83af;stroke-width:2"/><path fill="none" d="m150.3 147.01-1.088 53.191" style="stroke:#1a83af;stroke-width:2"/><path fill="#1A83AF" d="m149.09 206.2 4.183-8.916-4.08 3.917-3.918-4.08z" style="stroke:#1a83af;stroke-width:2"/><path fill="none" d="M98.76 47.28c-26.03 12.67-55.12 32.04-70.07 59.51-22.69 41.7 26.011 75.49 68.791 96.64" style="stroke:#1a83af;stroke-width:2"/><path fill="#1A83AF" d="m102.86 206.09-6.295-7.574 1.813 5.358-5.359 1.813z" style="stroke:#1a83af;stroke-width:2"/><path fill="none" d="M202.2 47.19c26.07 12.68 55.34 32.1 70.49 59.6 29.93 54.34 16.9 79.62 1 139.58-5.86 22.1-16.065 39.575-26.805 54.825" style="stroke:#1a83af;stroke-width:2"/><path fill="#1A83AF" d="m243.43 306.1 8.453-5.055-5.574.967-.967-5.574z" style="stroke:#1a83af;stroke-width:2"/><path fill="none" d="M150.69 47.22v53.19" style="stroke:#1a83af;stroke-width:2"/><path fill="#1A83AF" d="m150.69 106.41 4-9-4 4-4-4z" style="stroke:#1a83af;stroke-width:2"/></svg>
